icons/alert-fill-24.svg

<svg width="24" height="24" viewBox="0 0 24 24" fill="none" xmlns="http://www.w3.org/2000/svg">
<path fill-rule="evenodd" clip-rule="evenodd" d="M9.83584 3.24407C10.7985 1.57948 13.2015 1.57948 14.1642 3.24407L23.1305 18.7484C24.0944 20.4151 22.8917 22.5 20.9664 22.5H3.03362C1.10832 22.5 -0.0943988 20.4151 0.869457 18.7484L9.83584 3.24407ZM12 8.5C12.4142 8.5 12.75 8.83579 12.75 9.25V13.75C12.75 14.1642 12.4142 14.5 12 14.5C11.5858 14.5 11.25 14.1642 11.25 13.75V9.25C11.25 8.83579 11.5858 8.5 12 8.5ZM13 17.5C13 18.0523 12.5523 18.5 12 18.5C11.4477 18.5 11 18.0523 11 17.5C11 16.9477 11.4477 16.5 12 16.5C12.5523 16.5 13 16.9477 13 17.5Z" fill="black"/>
</svg>

<svg xmlns="http://www.w3.org/2000/svg" width="24" height="24" viewBox="0 0 24 24"><path fill-rule="evenodd" d="M9.836 3.244c.963-1.665 3.365-1.665 4.328 0l8.967 15.504c.963 1.667-.24 3.752-2.165 3.752H3.034c-1.926 0-3.128-2.085-2.165-3.752L9.836 3.244zM12 8.5a.75.75 0 01.75.75v4.5a.75.75 0 01-1.5 0v-4.5A.75.75 0 0112 8.5zm1 9a1 1 0 11-2 0 1 1 0 012 0z"/></svg>
